X: 1
T: Trip To Paris
C: trad. arr. Rachel Maloney / Rustic Roots
R: march
S: https://www.patreon.com/posts/rustic-roots-27198819
Z: 2020 John Chambers <jc:trillian.mit.edu>
M: C|
L: 1/8
K: Am
|:\
"Am"c3d e2e2 | c3d e2e2 | c2A2 c2A2 | c2Bc A2E2 ||\
"Am"c3d e2e2 | c3d e2e2 | c2A2 "G"BAG2 | "Am"A4 A4 :|
"Am"a3a a2^g2 | a2=gf e2e2 | a3a a2^g2 | a2=gf e2e2 |\
"Dm"f3e d2g2 | "Am"e6 f2 | "Dm"d6 e2 | "Am"c6 d2 ||\
"E"d2c2 d2B@ | "Am"c3c c2c2 ||
"E"B2c2 d2e2 | "Am"c2Bc A2c2 | "E"B2c2 d2e2 | "Am"c2Bc A2c2 |\
"E"B2c2 d2e2 | "Dm"f4 a4 | "Am"e2dc "E"d2cB | "Am"A4 A4 |]
